assets/images/icon-rss.svg

<svg height="20" viewBox="0 0 20 20" width="20" xmlns="http://www.w3.org/2000/svg"><path d="m1.00290487 10.5660036c2.24763979 0 4.36056644.8745027 5.94843863 2.4650995 1.59077705 1.5905967 2.46659405 3.7092224 2.46659405 5.9645569h3.46368915c0-6.5508137-5.32897601-11.87992763-11.87872183-11.87992763zm.00544662-6.11609402c8.01053014 0 14.52795931 6.52694392 14.52795931 14.55009042h3.4636892c0-9.92585895-8.0715323-18-17.99164851-18zm4.78976035 12.13996382c0 1.319349-1.07443718 2.3895118-2.39905592 2.3895118s-2.39905592-1.0698011-2.39905592-2.3895118c0-1.3200723 1.07407407-2.3895117 2.39869281-2.3895117s2.39941903 1.0694394 2.39941903 2.3895117z" fill="#fd7e14"/></svg>

<?xml version="1.0" encoding="UTF-8"?>
<svg width="20px" height="20px" viewBox="0 0 20 20" version="1.1" xmlns="http://www.w3.org/2000/svg" xmlns:xlink="http://www.w3.org/1999/xlink">
    <!-- Generator: Sketch 51.3 (57544) - http://www.bohemiancoding.com/sketch -->
    <title>icon-rss</title>
    <desc>Created with Sketch.</desc>
    <defs></defs>
    <g id="icon-rss" stroke="none" stroke-width="1" fill="none" fill-rule="evenodd">
        <path d="M1.00290487,10.5660036 C3.25054466,10.5660036 5.36347131,11.4405063 6.9513435,13.0311031 C8.54212055,14.6216998 9.41793755,16.7403255 9.41793755,18.99566 L12.8816267,18.99566 C12.8816267,12.4448463 7.55265069,7.11573237 1.00290487,7.11573237 L1.00290487,10.5660036 Z M1.00835149,4.44990958 C9.01888163,4.44990958 15.5363108,10.9768535 15.5363108,19 L19,19 C19,9.07414105 10.9284677,1 1.00835149,1 L1.00835149,4.44990958 Z M5.79811184,16.5898734 C5.79811184,17.9092224 4.72367466,18.9793852 3.39905592,18.9793852 C2.07443718,18.9793852 1,17.9095841 1,16.5898734 C1,15.2698011 2.07407407,14.2003617 3.39869281,14.2003617 C4.72331155,14.2003617 5.79811184,15.2698011 5.79811184,16.5898734 Z" fill="#FD7E14" fill-rule="nonzero"></path>
    </g>
</svg>
